src/images/badges/most-viewed-year-line.svg

<svg width="80" height="20" viewBox="0 0 80 20" fill="none" xmlns="http://www.w3.org/2000/svg">
<path d="M79 10C79 5.02944 74.9706 1 70 1L10 1C5.02944 1 1 5.02944 1 10C1 14.9706 5.02944 19 10 19H70C74.9706 19 79 14.9706 79 10Z" fill="#C56FFF"/>
<path d="M42.0114 4.33617C42.0114 4.4929 42.0898 4.62351 42.2465 4.70187C43.6048 5.45941 44.9893 6.92224 44.9893 9.87401C44.9893 12.8258 43.631 14.3409 42.2465 15.0984C42.0898 15.2029 42.0114 15.3074 42.0114 15.4641C42.0114 15.6731 42.142 15.8037 42.351 15.8037C42.4294 15.8037 42.5339 15.8037 42.7167 15.6992C44.1795 14.9678 45.8513 13.1392 45.8513 9.90013C45.8513 6.66102 44.1795 4.83248 42.7167 4.10107C42.5339 4.0227 42.4294 3.99658 42.351 3.99658C42.142 3.99658 42.0114 4.12719 42.0114 4.33617Z" fill="black"/>
<path d="M9.35902 15.4902C9.35902 15.3335 9.28066 15.2029 9.12393 15.1245C7.73947 14.367 6.38113 12.878 6.38113 9.92626C6.38113 6.97448 7.73947 5.48553 9.12393 4.728C9.28066 4.62351 9.35902 4.51902 9.35902 4.36229C9.35902 4.15331 9.22841 4.02271 9.01944 4.02271C8.94107 4.02271 8.83659 4.02271 8.65373 4.12719C7.19091 4.88473 5.5191 6.68714 5.5191 9.92626C5.5191 13.1654 7.19091 14.9939 8.65373 15.7253C8.83659 15.8037 8.94107 15.8298 9.01944 15.8298C9.22841 15.8298 9.35902 15.6992 9.35902 15.4902Z" fill="black"/>
<path d="M9.90759 11.0235C9.90759 11.2847 10.0643 11.3892 10.2733 11.3892C10.4562 11.3892 10.6129 11.3369 10.6651 11.0496C10.7435 10.6578 10.848 10.4749 11.1876 10.4749H11.9973C12.5459 10.4749 12.8594 10.1876 12.99 9.82186C13.1467 9.40391 13.3296 9.11657 13.7998 9.11657H14.3744C14.8969 9.11657 15.1581 8.77698 15.3409 8.41128C15.3673 8.35857 15.3911 8.30878 15.4135 8.26199C15.5689 7.93785 15.6549 7.75823 16.0201 7.75823H16.6732C17.4568 7.75823 18.0054 7.18355 18.0054 6.47826C18.0054 6.21704 17.8487 6.11255 17.6397 6.11255C17.4568 6.11255 17.3001 6.16479 17.2478 6.42601C17.1695 6.84396 17.0911 7.02682 16.7254 7.02682H15.8895C15.3671 7.02682 15.0536 7.31416 14.923 7.67986C14.7924 8.09781 14.6357 8.41128 14.1655 8.41128H13.6169C13.0683 8.41128 12.7549 8.72474 12.572 9.09045C12.5457 9.14315 12.5218 9.19295 12.4994 9.23973C12.3441 9.56394 12.2581 9.74349 11.8929 9.74349H11.2137C10.4562 9.74349 9.90759 10.3182 9.90759 11.0235Z" fill="black"/>
<path d="M21.9237 9.0904C21.9237 8.69857 22.211 8.43735 22.629 8.43735C23.0469 8.43735 23.3342 8.72469 23.3342 9.0904C23.3342 9.45611 23.0469 9.74345 22.629 9.74345C22.2371 9.74345 21.9237 9.48223 21.9237 9.0904Z" fill="black"/>
<path fill-rule="evenodd" clip-rule="evenodd" d="M19.5988 9.0904C19.5988 6.81779 20.6437 5.0415 22.6551 5.0415C24.6665 5.0415 25.7113 6.81779 25.7113 9.0904C25.7113 11.3891 24.6665 13.1654 22.6551 13.1654C20.6437 13.1654 19.5988 11.3891 19.5988 9.0904ZM24.8493 9.0904C24.8493 7.20962 24.0395 5.79904 22.629 5.79904C21.2184 5.79904 20.4086 7.20962 20.4086 9.0904C20.4086 10.9712 21.2184 12.3818 22.629 12.3818C24.0395 12.3818 24.8493 10.9712 24.8493 9.0904Z" fill="black"/>
<path fill-rule="evenodd" clip-rule="evenodd" d="M30.3349 8.88145C28.5586 8.88145 27.2264 10.1353 27.2264 11.9116C27.2264 13.6879 28.5847 14.9417 30.3349 14.9417C32.1112 14.9417 33.4434 13.6879 33.4434 11.9116C33.4434 10.1614 32.0851 8.88145 30.3349 8.88145ZM30.3349 9.61287C31.5626 9.61287 32.6075 10.5794 32.6075 11.9116C32.6075 13.2438 31.5626 14.2103 30.3349 14.2103C29.1072 14.2103 28.0623 13.2438 28.0623 11.9116C28.0623 10.5533 29.1072 9.61287 30.3349 9.61287Z" fill="black"/>
<path d="M29.2378 5.7207C28.9766 5.7207 28.7676 5.92968 28.7676 6.16478C28.7676 6.32151 28.846 6.47824 29.0288 6.5566L30.6745 7.96719L30.7024 7.98396C30.8167 8.05291 30.8911 8.0978 30.988 8.0978C31.1186 8.0978 31.2492 7.99331 31.2492 7.83658C31.2492 7.70597 31.1969 7.60148 31.0925 7.49699L29.6819 5.92968C29.5513 5.82519 29.3945 5.7207 29.2378 5.7207Z" fill="black"/>
<path d="M37.0221 9.0904C37.0221 8.69857 37.3095 8.43735 37.7274 8.43735C38.1454 8.43735 38.4327 8.72469 38.4327 9.0904C38.4327 9.45611 38.1454 9.74345 37.7274 9.74345C37.3095 9.74345 37.0221 9.48223 37.0221 9.0904Z" fill="black"/>
<path fill-rule="evenodd" clip-rule="evenodd" d="M34.6711 9.0904C34.6711 6.81779 35.716 5.0415 37.7274 5.0415C39.7388 5.0415 40.7837 6.81779 40.7837 9.0904C40.7837 11.3891 39.7388 13.1654 37.7274 13.1654C35.716 13.1654 34.6711 11.3891 34.6711 9.0904ZM39.9216 9.0904C39.9216 7.20962 39.1119 5.79904 37.7013 5.79904C36.2907 5.79904 35.4809 7.20962 35.4809 9.0904C35.4809 10.9712 36.2907 12.3818 37.7013 12.3818C39.1119 12.3818 39.9216 10.9712 39.9216 9.0904Z" fill="black"/>
<path d="M47.288 11.3892C47.079 11.3892 46.9223 11.2847 46.9223 11.0235C46.9223 10.3182 47.4709 9.74349 48.2284 9.74349H48.9076C49.2728 9.74349 49.3588 9.56396 49.5141 9.23975C49.5364 9.19318 49.5605 9.14287 49.5867 9.09045C49.7696 8.72474 50.0831 8.41128 50.6316 8.41128H51.1802C51.6504 8.41128 51.8071 8.09781 51.9377 7.67986C52.0683 7.31416 52.3818 7.02682 52.9042 7.02682H53.7401C54.1058 7.02682 54.1842 6.84396 54.2626 6.42601C54.3148 6.16479 54.4715 6.11255 54.6544 6.11255C54.8634 6.11255 55.0201 6.21704 55.0201 6.47826C55.0201 7.18355 54.4715 7.75823 53.6879 7.75823H53.0348C52.6696 7.75823 52.5836 7.93777 52.4283 8.26197C52.4059 8.30876 52.382 8.35857 52.3557 8.41128C52.1728 8.77698 51.9116 9.11657 51.3891 9.11657H50.8145C50.3443 9.11657 50.1614 9.40391 50.0047 9.82186C49.8741 10.1876 49.5606 10.4749 49.0121 10.4749H48.2023C47.8627 10.4749 47.7582 10.6578 47.6798 11.0496C47.6276 11.3369 47.4709 11.3892 47.288 11.3892Z" fill="black"/>
<path d="M54.7589 15.2029C54.5238 15.2029 54.3148 15.3596 54.3148 15.5947C54.3148 15.8037 54.4977 15.9604 54.7589 15.9604H64.8942C65.1293 15.9604 65.3121 15.7776 65.3121 15.5686C65.3121 15.3596 65.1293 15.2029 64.8942 15.2029H54.7589Z" fill="black"/>
<path d="M74.4809 4.36229C74.4809 4.15331 74.3242 3.99658 74.0891 3.99658C73.9324 3.99658 73.8018 4.12719 73.7234 4.23168L67.1929 15.2029C67.1407 15.2551 67.1146 15.3335 67.1146 15.438C67.1146 15.647 67.2713 15.8037 67.5064 15.8037C67.6631 15.8037 67.7937 15.6992 67.8721 15.5686L74.4026 4.59739C74.4548 4.54514 74.4809 4.46678 74.4809 4.36229Z" fill="black"/>
</svg>

<svg xmlns="http://www.w3.org/2000/svg" width="80" height="20" fill="none"><path fill="#C56FFF" d="M79 10a9 9 0 0 0-9-9H10a9 9 0 0 0 0 18h60a9 9 0 0 0 9-9Z"/><path fill="#000" d="M42.011 4.336c0 .157.079.288.235.366 1.359.757 2.743 2.22 2.743 5.172 0 2.952-1.358 4.467-2.742 5.224-.157.105-.236.21-.236.366 0 .21.131.34.34.34.078 0 .183 0 .366-.105 1.462-.731 3.134-2.56 3.134-5.799 0-3.239-1.672-5.068-3.134-5.799-.183-.078-.288-.104-.366-.104-.209 0-.34.13-.34.34ZM9.359 15.49a.394.394 0 0 0-.235-.366c-1.385-.757-2.743-2.246-2.743-5.198 0-2.952 1.358-4.44 2.743-5.198.157-.104.235-.209.235-.366 0-.209-.13-.34-.34-.34-.078 0-.182 0-.365.105-1.463.758-3.135 2.56-3.135 5.8 0 3.238 1.672 5.067 3.135 5.798.183.079.287.105.365.105.21 0 .34-.13.34-.34ZM9.908 11.024c0 .26.156.365.365.365.183 0 .34-.052.392-.34.079-.391.183-.574.523-.574h.81c.548 0 .861-.287.992-.653.157-.418.34-.705.81-.705h.574c.523 0 .784-.34.967-.706l.073-.149c.155-.324.24-.504.606-.504h.653c.784 0 1.332-.574 1.332-1.28 0-.261-.156-.365-.365-.365-.183 0-.34.052-.392.313-.079.418-.157.6-.523.6h-.836c-.522 0-.835.288-.966.654-.13.418-.287.731-.758.731h-.548c-.549 0-.862.314-1.045.68l-.073.149c-.155.324-.24.503-.606.503h-.68c-.757 0-1.305.575-1.305 1.28ZM21.924 9.09c0-.391.287-.653.705-.653s.705.288.705.653c0 .366-.287.653-.705.653-.392 0-.705-.26-.705-.653Z"/><path fill="#000" fill-rule="evenodd" d="M19.599 9.09c0-2.272 1.045-4.048 3.056-4.048s3.056 1.776 3.056 4.048c0 2.3-1.044 4.075-3.056 4.075-2.011 0-3.056-1.776-3.056-4.075Zm5.25 0c0-1.88-.81-3.291-2.22-3.291-1.41 0-2.22 1.41-2.22 3.291s.81 3.292 2.22 3.292c1.41 0 2.22-1.41 2.22-3.292ZM30.335 8.881c-1.776 0-3.109 1.254-3.109 3.03 0 1.777 1.359 3.03 3.109 3.03 1.776 0 3.108-1.253 3.108-3.03 0-1.75-1.358-3.03-3.108-3.03Zm0 .732c1.228 0 2.273.966 2.273 2.299a2.263 2.263 0 0 1-2.273 2.298 2.263 2.263 0 0 1-2.273-2.298c0-1.359 1.045-2.3 2.273-2.3Z" clip-rule="evenodd"/><path fill="#000" d="M29.238 5.72c-.261 0-.47.21-.47.445 0 .157.078.313.26.392l1.646 1.41.028.017c.115.069.19.114.286.114.13 0 .261-.105.261-.261a.46.46 0 0 0-.156-.34L29.681 5.93c-.13-.105-.287-.21-.444-.21ZM37.022 9.09c0-.391.288-.653.705-.653.418 0 .706.288.706.653 0 .366-.288.653-.706.653-.417 0-.705-.26-.705-.653Z"/><path fill="#000" fill-rule="evenodd" d="M34.671 9.09c0-2.272 1.045-4.048 3.056-4.048 2.012 0 3.057 1.776 3.057 4.048 0 2.3-1.045 4.075-3.057 4.075-2.011 0-3.056-1.776-3.056-4.075Zm5.25 0c0-1.88-.81-3.291-2.22-3.291-1.41 0-2.22 1.41-2.22 3.291s.81 3.292 2.22 3.292c1.41 0 2.22-1.41 2.22-3.292Z" clip-rule="evenodd"/><path fill="#000" d="M47.288 11.39c-.209 0-.366-.105-.366-.367 0-.705.549-1.28 1.306-1.28h.68c.365 0 .45-.179.606-.503a9.67 9.67 0 0 1 .073-.15c.183-.365.496-.679 1.045-.679h.548c.47 0 .627-.313.758-.731.13-.366.444-.653.966-.653h.836c.366 0 .444-.183.523-.601.052-.261.209-.313.391-.313.21 0 .366.104.366.365 0 .706-.549 1.28-1.332 1.28h-.653c-.365 0-.451.18-.607.504a9.992 9.992 0 0 1-.072.15c-.183.365-.444.705-.967.705h-.575c-.47 0-.653.287-.81.705-.13.366-.443.653-.992.653h-.81c-.34 0-.444.183-.522.575-.052.287-.21.34-.392.34ZM54.759 15.203c-.235 0-.444.157-.444.392 0 .209.183.365.444.365h10.135c.235 0 .418-.182.418-.391 0-.21-.183-.366-.418-.366H54.76ZM74.48 4.362c0-.209-.156-.365-.39-.365-.158 0-.288.13-.367.235l-6.53 10.97c-.052.053-.078.132-.078.236 0 .209.156.366.391.366.157 0 .288-.105.366-.235l6.53-10.972c.053-.052.079-.13.079-.235Z"/></svg>
